X:1
T:Bohemian Folk Song (violin)
M:4/4
K:D
L: 1/4
D E F G | A B c A | d2 d2 | c4 | B2 B2 | A4 |
G G G G | F F F F | E2 E2 | D4 :|

